build/images/arrow-white.svg

<?xml version="1.0" encoding="UTF-8"?>
<svg width="20px" height="10px" viewBox="0 0 20 10" version="1.1" xmlns="http://www.w3.org/2000/svg" xmlns:xlink="http://www.w3.org/1999/xlink">
    <!-- Generator: sketchtool 63.1 (101010) - https://sketch.com -->
    <title>A3500D5B-EBA8-45A9-BE8C-4A794911FBC1</title>
    <desc>Created with sketchtool.</desc>
    <g id="Page-1" stroke="none" stroke-width="1" fill="none" fill-rule="evenodd">
        <g id="Kupa-shop---elements" transform="translate(-112.000000, -183.000000)" fill="#FFFFFF" fill-rule="nonzero">
            <g id="button/stroke" transform="translate(23.000000, 166.000000)">
                <g id="arrow-white" transform="translate(89.000000, 17.000000)">
                    <path d="M19.7708594,4.42915323 C19.770625,4.42891129 19.7704297,4.42862903 19.7701563,4.4283871 L15.6879687,0.23483871 C15.3821484,-0.0793145161 14.8875,-0.0781451613 14.5830859,0.237580645 C14.2787109,0.553266129 14.2798828,1.06387097 14.5857031,1.37806452 L17.3264844,4.19354839 L0.78125,4.19354839 C0.349765625,4.19354839 0,4.55459677 0,5.00000276 C0,5.44540323 0.349765625,5.80645161 0.78125,5.80645161 L17.3264453,5.80645161 L14.5857422,8.62193548 C14.2799219,8.93612903 14.27875,9.44673387 14.583125,9.76241935 C14.8875391,10.0781855 15.3822266,10.0792742 15.6880078,9.76516129 L19.7701953,5.5716129 C19.7704297,5.57137097 19.770625,5.57108871 19.7708984,5.57084677 C20.076875,5.25560484 20.0758984,4.74334677 19.7708594,4.42915323 Z" id="Path"></path>
                </g>
            </g>
        </g>
    </g>
</svg>

<svg width="20" height="10" xmlns="http://www.w3.org/2000/svg"><g id="Page-1" stroke="none" stroke-width="1" fill="none" fill-rule="evenodd"><g id="Kupa-shop---elements" transform="translate(-112 -183)" fill="#FFF" fill-rule="nonzero"><g id="button/stroke" transform="translate(23 166)"><g id="arrow-white" transform="translate(89 17)"><path d="M19.77 4.43v-.002L15.688.235a.764.764 0 00-1.105.003.825.825 0 00.003 1.14l2.74 2.816H.781A.794.794 0 000 5c0 .445.35.806.781.806h16.545l-2.74 2.816a.825.825 0 00-.003 1.14c.305.316.8.317 1.105.003l4.082-4.193V5.57a.826.826 0 000-1.142z" id="Path"/></g></g></g></g></svg>
